X: 1
T: Ca' the Wethers to the Hill
R: strathspey
C: Cape Breton
S: http://terrytraub.org/abc/CaTheWethersToTheHillS.abc 2015-8-18
M: 4/4
L: 1/8
K: A
R: strathspey
B |:\
"A"A<aa>g "D"f>ea>c | "A"A<aa>c "Bm"B>c "E"(3 dcB |\
"A"A<aa>g "F#m"f>ea>c | "D"d<f"A"e>c "E"B2 "A"A2 :|
f |\
"A"e<Ae>c "F#m"A/A/A e>c | "Bm"d<f"A"e>c "E"B>c d<b |\
"A"e<Ae>c "F#m"A/A/A e>c | "Bm"d<fe>c "E"B2 "A"A> ||
f |\
"A"e<Ae>c "F#m"A/A/A e>c | "Bm"d<f"A"e>c "E"B>c (3dcB |\
"A"A<a "E"g<b "D"f<a"A"e>c | "D"d<f"A"e>c "E"B2 "A"A |]
